outputs/icons/alert/warning_round.svg

<svg xmlns="http://www.w3.org/2000/svg" width="1200" height="1200" fill="none"><g clip-path="url(#a)"><path fill="#000" d="M200.063 1000.375h753.002c76.995 0 125-83.5 86.5-150l-376.505-650.5c-38.5-66.5-134.5-66.5-172.997 0l-376.5 650.5c-38.5 66.5 9.5 150 86.5 150m376.497-350c-27.5 0-50-22.5-50-50v-100c0-27.5 22.5-50 50-50s50 22.5 50 50v100c0 27.5-22.5 50-50 50m50 200h-100v-100h100z"/></g><defs><clipPath id="a"><path fill="#fff" d="M0 0h1200v1200H0z"/></clipPath></defs></svg>

<svg width="1200" height="1200" viewBox="0 0 1200 1200" fill="none" xmlns="http://www.w3.org/2000/svg"><g clip-path="url(#clip0_223_2048)"><path d="M200.063 1000.375H953.065C1030.06 1000.375 1078.065 916.875 1039.565 850.375L663.06 199.875C624.56 133.375 528.56 133.375 490.063 199.875L113.563 850.375C75.063 916.875 123.063 1000.375 200.063 1000.375ZM576.56 650.375C549.06 650.375 526.56 627.875 526.56 600.375V500.375C526.56 472.875 549.06 450.375 576.56 450.375C604.06 450.375 626.56 472.875 626.56 500.375V600.375C626.56 627.875 604.06 650.375 576.56 650.375ZM626.56 850.375H526.56V750.375H626.56V850.375Z" fill="black"/></g><defs><clipPath id="clip0_223_2048"><path width="24" fill="white" d="M0 0H1200V1200H0V0z"/></clipPath></defs></svg>
